X:1
T:Buxtehude - Aria:  La Capricciosa in G Minor.
%%score { 1 | ( 2 3 ) }
L:1/8
Q:1/4=100
M:4/4
K:G
V:1 treble nm="Harpsichord" snm="Hch."
V:2 bass 
V:3 bass 
V:1
"^Partita 6"!f! z/ d/e/f/ g/B/c/d/ e/G/A/B/ c/G/A/G/ | F/A/B/c/ d/F/G/A/ B/D/E/F/ G/A/B/c/ | %2
 Td4 e/=f/e/d/ c/B/A/G/ | z/ b/a/g/ f/e/d/c/ B/g/A/f/ g2 :: %4
[Q:1/4=100] (B/c/d/F/) (G/A/B/D/) (E/=F/G/B,/) (C/D/E/G,/) | A, z A, z B,/=C/D/C/ B,/C/A,/B,/ | %6
 z2 z/ B/c/d/ e/=f/g/f/ e/d/c/B/ | PA2 A/c/PB/A/[Q:1/4=90] B/G/[Q:1/4=80]d/B/ g2 :| %8
V:2
 G,3 B, PC>D E2 | DCMB,A, G,2 z2 | G,/A,/B,/C/ D/E/=F/G/ C2 ME2 | DC D>D, G,2- G,/D,/MB,,/G,,/ :: %4
 G,2 PB,,2 C,>D, E,2 | (F,/G,/A,/^C,/) (D,/E,/F,/D,,/) G,,4 | %6
 G,/A,/B,/A,/ G,/=F,/E,/D,/ C,/D,/E,/F,/ G,/A,/B,/C/ | D/E/F/G/ z F, G,4 :| %8
V:3
 x8 | x8 | x8 | x8 :: x8 | x8 | x8 | x2 z D, z2 z G,, :| %8

